X:82
T:Humors of Whiskey (sj)
B:NFID.159a
082hu_whis
S:F&MB
L:1/8
M:9/8
R:slip jig
Q:300
K:D
gfe fBB/B/ fBB|gfe fBB/B/ fga|gbe fBB fBB|agf efd cBA:|
d2e fdf ecA|d2e fdf gfe|d2e fdf efg|agf efd cBA:|

%%%

